X:1
L:1/8
M:3/4
K:G
 d3/4 c/4 | B3/2 B A/ | G G F | E F G | A3/4 A3/2 G/ | B B G | c e c/ c/ | B B A | G/ G z/ | d | 
 B B A | G G F | E F G | A2 G3/4 G/4 | B B G3/4 G/4 | c e d3/4 c/4 | B B A | G2 d3/4 c/4 | 
 B B A/ A/ | G G D/ D/ | E F G | B A3/2 G/4 G/4 | B B G/ G/ | c e d | B3/2 G/ A | G/ G32x :|
